src/img/exhibition-samples/geo.svg

<svg width="12" height="20" viewBox="0 0 12 20" fill="none" xmlns="http://www.w3.org/2000/svg">
<g id="Frame" clip-path="url(#clip0_556_824)">
<path id="Vector" d="M12 6.01058C11.9881 6.74693 11.8644 7.56824 11.494 8.33962C9.87667 11.7166 8.26161 15.0942 6.64134 18.4704C6.56755 18.6247 6.47067 18.7752 6.35589 18.9019C6.14497 19.133 5.84909 19.1308 5.63817 18.9005C5.53085 18.7834 5.43694 18.6456 5.36912 18.5025C3.7399 15.0689 2.11889 11.6323 0.487437 8.201C-0.00371259 7.16876 -0.0991104 6.09405 0.0916852 4.98654C0.515013 2.54048 2.33949 0.599733 4.78481 0.131688C7.19956 -0.330395 9.22304 0.432042 10.7598 2.36459C11.5856 3.40353 11.9545 4.55576 12 6.01058ZM6.00188 2.61128C4.14087 2.60905 2.60631 4.14585 2.61451 6.00312C2.62345 7.86413 4.13864 9.37782 5.99666 9.38155C7.84946 9.38527 9.37061 7.87083 9.38402 6.00759C9.39744 4.1533 7.86437 2.61278 6.00188 2.61054V2.61128Z" fill="#E95229"/>
</g>
<defs>
<clipPath id="clip0_556_824">
<rect width="12" height="19.0729" fill="white"/>
</clipPath>
</defs>
</svg>

<svg width="12" height="20" fill="none" xmlns="http://www.w3.org/2000/svg"><g id="Frame" clip-path="url(#clip0_556_824)"><path id="Vector" d="M12 6.01c-.012.737-.136 1.558-.506 2.33-1.617 3.377-3.232 6.754-4.853 10.13-.073.155-.17.305-.285.432-.211.231-.507.229-.718-.002a1.636 1.636 0 01-.269-.397C3.74 15.069 2.12 11.633.487 8.2c-.49-1.032-.586-2.107-.395-3.214C.515 2.54 2.339.6 4.785.132 7.2-.33 9.223.432 10.76 2.365c.826 1.039 1.194 2.19 1.24 3.646zM6.002 2.612C4.14 2.61 2.606 4.146 2.615 6.003a3.398 3.398 0 003.382 3.379c1.852.003 3.374-1.511 3.387-3.374.013-1.855-1.52-3.395-3.382-3.397z" fill="#E95229"/></g><defs><clipPath id="clip0_556_824"><path fill="#fff" d="M0 0h12v19.073H0z"/></clipPath></defs></svg>
